src/icons/gamemaker.svg

<?xml version="1.0" encoding="UTF-8"?>
<svg version="1.1" viewBox="0 0 16 16" xmlns="http://www.w3.org/2000/svg">
 <path d="m8 1.4221 6.5779 6.5779h-3.7588v3.8528c-0.93971 0.84574-1.8794 1.7854-2.8191 2.7251l-6.5779-6.5779zm-2.7251 6.5779 2.7251 2.7251v-2.7251h2.7251c-0.84574-0.93971-1.7854-1.8794-2.7251-2.7251-0.93971 0.84573-1.8794 1.7854-2.7251 2.7251z" fill="#26a69a" stroke-width=".9397"/>
</svg>

<svg viewBox="0 0 16 16" xmlns="http://www.w3.org/2000/svg">
  <path
    d="M7.99999 1.42209L14.5779 7.99999H10.8191V11.8528C9.87938 12.6985 8.93969 13.6382 7.99999 14.5779L1.42209 7.99999L7.99999 1.42209ZM5.27489 7.99999L7.99999 10.7251V7.99999H10.7251C9.87935 7.06028 8.93969 6.12059 7.99999 5.27489C7.06028 6.12062 6.12059 7.06029 5.27489 7.99999Z"
    fill="#26A69A"
  />
</svg>
